resources/haticons/SVG/account_tree.svg

<!-- Generated by IcoMoon.io -->
<svg version="1.1" xmlns="http://www.w3.org/2000/svg" width="24" height="24" viewBox="0 0 24 24">
<title>account_tree</title>
<path d="M21.984 11.016h-6.984v-3h-2.016v7.969h2.016v-3h6.984v8.016h-6.984v-3h-3.984v-9.984h-2.016v3h-6.984v-8.016h6.984v3h6v-3h6.984v8.016z"></path>
</svg>

<svg xmlns="http://www.w3.org/2000/svg" width="24" height="24"><path d="M21.984 11.016H15v-3h-2.016v7.969H15v-3h6.984v8.016H15v-3h-3.984V8.017H9v3H2.016V3.001H9v3h6v-3h6.984v8.016z"/></svg>
